X: 28952
T: Nancy Fat
R: jig
M: 6/8
K: Gmajor
|:B2A G2g|efg d2c|BdB BAG|A3 A2z|
BdB G2g|efg d2c|BdB AGF|G3 G3:|
|:b2a g2f|efg dcB|b2a g2f|a3 a2z|
b2a g2f|efg dcB|BdB AGF|G3 G3:|

